X: 4
T: The Green Mountain
R: reel
M: 4/4
L: 1/8
K: Dmaj
B|A~F3 AFEF|D~F3 ABde|f2df efdB|Adfd efdB|
A~F3 AFEF|D~F3 ABde|f2df efdB|AFEF D3:|
e|f~a3 bfaf|defd e2de|f2df efdB|Adfd efde|
f~a3 bfaf|defd e2de|f2df efdB|AFEF D3:|
